X:1
T:Peace I Leave with You
T:Peace I Leave with You
T:Frances Abernathy
T:Frances Abernathy, 1917
T:Public Domain Courtesy of the Cyber Hymnal™
T:Public Domain Courtesy of the Cyber Hymnal™
C:Frances Abernathy
Z:Public Domain
Z:Courtesy of the Cyber Hymnal™
%%score ( 1 2 ) ( 3 4 )
L:1/8
Q:1/4=112
M:3/4
K:Ab
V:1 treble 
V:2 treble 
V:3 bass 
V:4 bass 
V:1
 [CE]2 [=B,=D]2 [CE]2 | [Ec]4 [DG][EA] | B2 F2 [EG]2 | [EA]4 [DE]2 | [CE]2 [CA]2 [Ec]2 | c2 B2 A2 | %6
w: 1.~He was des-|pis- èd, was|poor, and an|out- cast;|He had no|rich- es to|
w: 2.~Is your back|bend- ing ’neath|pov- er- ty’s|bur- den?|Christ’s pre- cious|gift means so|
w: 3.~Free- ly to|all is this|leg- a- cy|giv- en,|All may find|peace, tho’ the|
 c2 B2 F2 | (A2 G2) (FE) x2 | [CE]2 [=B,=D]2 [CE]2 | [Ec]4 [DG][EA] | B2 F2 [EG]2 | [EA]4 E2 | %12
w: leave to His|own; * And *|yet He be-|queathed us a|price- less pos-|sess- sion,|
w: much more than|wealth; * If *|you are af-|flict- ed with|sick- ness and|suff- ering,|
w: care- bil- lows|roll; * How *|free- ly it’s|of- fered! The|on- ly con-|di- tion,|
 [DF]2 G2 [=DFA]2 | E2 A2 [FB]2 | [Ec]4 [DB]>[DB] | [CA]6 |:"^Refrain" [CE]2 [A,C]2 [CF]2 | %17
w: Gift that all|mor- tals are|yearn- ing to|own.|“Peace I give|
w: List to His|prom- ise— it|giv- eth you|health.|O price- less|
w: God must be|giv- en His|way with your|soul.||
 [CF]3 [CE] [CE]2 | [Ec]2 [Fd]2 [Ec]2 | [=Dc]3 [DB] [DF]2 | [DG]2 [DG]2 [CA]2 |1 %21
w: un- to thee,|My peace I|leave with thee;|Not as the|
w: leg- a- cy!|That there should|be for thee|Peace o- ver-|
w: ||||
 [Ec]2 [DB]2 [DG]2 | [DF]4 [CE]2 | [A,C]4 z2 :|2 [DE]2 || A6- | [CA]4 z2 |] %27
w: world, give I|un- to|thee”;||||
w: flow- ing ~|~ ~|~|thy|soul.||
w: ||||||
V:2
 x6 | x6 | D4 x2 | x6 | x6 | [CF]6 | =D6 | D6 x2 | x6 | x6 | D4 x2 | x6 | x6 | E4 x2 | x6 | x6 |: %16
 x6 | x6 | x6 | x6 | x6 |1 x6 | x6 | x6 :|2 x2 || C2 E2 D2 | x6 |] %27
V:3
 [A,,A,]6 | [A,,A,]4 [B,,E,][C,A,] | F,2 B,4 | [C,A,]4 [B,,G,]2 | [A,,A,]6 | [F,A,]6 | A,4 B,2- | %7
w: ~|~ ~ ~|~ ~|~ ~|~|~|~ ~|
 B,4 x4 | [A,,A,]6 | [A,,A,]4 [B,,E,][C,A,] | F,2 B,4 | [C,A,]6 | A,6 | A,6- | A,4 G,E, | %15
w: ~|~|~ ~ ~|~ ~|~|~|~|* ~ ~|
 [A,,E,]6 |: [A,,A,]2 [A,,E,]2 [A,,A,]2 | [A,,A,]3 [A,,A,] [A,,A,]2 | [A,,A,]2 [A,,A,]2 [A,,A,]2 | %19
w: ~|~ ~ ~|~ ~ ~|~ ~ ~|
 [B,,A,]3 [B,,A,] [B,,B,]2 | [E,B,]2 [E,B,]2 [E,A,]2 |1 [E,G,]2 [E,G,]2 [E,B,]2 | %22
w: ~ ~ ~|~ ~ ~|~ ~ ~|
 [A,,A,]4 [A,,A,]2 | [A,,E,]4 z2 :|2 [E,G,]2 || (A,2 G,2) F,2 | [A,,E,]4 z2 |] %27
w: ~ ~|~|~|~ * thy|less|
V:4
 x6 | x6 | D,6 | x6 | x6 | x6 | B,,6 | E,6 (A,G,) | x6 | x6 | D,6 | x6 | D,4 =B,,2 | C,4 D,2 | %14
 E,6 | x6 |: x6 | x6 | x6 | x6 | x6 |1 x6 | x6 | x6 :|2 x2 || A,,6- | x6 |] %27

